polaris-icons/icons/new-icons/TransportMajor.svg

<svg width="20" height="20" viewBox="0 0 20 20" fill="none" xmlns="http://www.w3.org/2000/svg">
<path fill-rule="evenodd" clip-rule="evenodd" d="M14.75 7.75C15.9926 7.75 17 8.75736 17 10C17 11.2426 15.9926 12.25 14.75 12.25H13.0093L11.4271 15.5725C11.3028 15.8336 11.0393 16 10.75 16H8.5C8.28258 16 8.07586 15.9057 7.93341 15.7414C7.79096 15.5772 7.72679 15.3592 7.75754 15.1439L8.17096 12.25H7.29101L6.60655 13.1911C6.46542 13.3852 6.23995 13.5 6 13.5H3.75C3.50534 13.5 3.27606 13.3807 3.1357 13.1803C2.99534 12.9799 2.96154 12.7236 3.04515 12.4937L3.95195 10L3.04515 7.50631C2.96154 7.27638 2.99534 7.02012 3.1357 6.81973C3.27606 6.61933 3.50534 6.5 3.75 6.5L6 6.5C6.23995 6.5 6.46542 6.61481 6.60655 6.80887L7.29101 7.75H8.17096L7.75754 4.85607C7.72679 4.64083 7.79096 4.42285 7.93341 4.2586C8.07586 4.09435 8.28258 4 8.5 4L10.75 4C11.0393 4 11.3028 4.16637 11.4271 4.42755L13.0093 7.75H14.75ZM15.5 10C15.5 9.58579 15.1642 9.25 14.75 9.25L12.5357 9.25C12.2464 9.25 11.9829 9.08363 11.8586 8.82245L10.2764 5.5L9.36476 5.5L9.77818 8.39393C9.80892 8.60917 9.74476 8.82715 9.6023 8.9914C9.45985 9.15565 9.25313 9.25 9.03571 9.25H6.90909C6.66914 9.25 6.44367 9.13519 6.30254 8.94113L5.61808 8H4.82077L5.45484 9.74369C5.51505 9.90926 5.51505 10.0907 5.45484 10.2563L4.82077 12H5.61808L6.30254 11.0589C6.44367 10.8648 6.66914 10.75 6.90909 10.75H9.03571C9.25313 10.75 9.45985 10.8443 9.6023 11.0086C9.74476 11.1728 9.80892 11.3908 9.77818 11.6061L9.36476 14.5H10.2764L11.8586 11.1775C11.9829 10.9164 12.2464 10.75 12.5357 10.75L14.75 10.75C15.1642 10.75 15.5 10.4142 15.5 10Z" fill="#4A4A4A"/>
</svg>

<svg viewBox="0 0 20 20" xmlns="http://www.w3.org/2000/svg"><path fill-rule="evenodd" d="M14.75 7.75a2.25 2.25 0 0 1 0 4.5h-1.74l-1.583 3.322a.75.75 0 0 1-.677.428h-2.25a.75.75 0 0 1-.742-.856l.413-2.894h-.88l-.684.941a.75.75 0 0 1-.607.309h-2.25a.75.75 0 0 1-.705-1.006l.907-2.494-.907-2.494a.75.75 0 0 1 .705-1.006h2.25a.75.75 0 0 1 .607.309l.684.941h.88l-.413-2.894a.75.75 0 0 1 .742-.856h2.25a.75.75 0 0 1 .677.428l1.582 3.322h1.741Zm.75 2.25a.75.75 0 0 0-.75-.75h-2.214a.75.75 0 0 1-.677-.428l-1.583-3.322h-.911l.413 2.894a.75.75 0 0 1-.742.856h-2.127a.75.75 0 0 1-.606-.309l-.685-.941h-.797l.634 1.744a.75.75 0 0 1 0 .512l-.634 1.744h.797l.685-.941a.75.75 0 0 1 .606-.309h2.127a.75.75 0 0 1 .742.856l-.413 2.894h.911l1.583-3.322a.75.75 0 0 1 .677-.428h2.214a.75.75 0 0 0 .75-.75Z" fill="#5C5F62"/></svg>
